;FLAVOR:Marlin
;TIME:4428
;Filament used: 3.79578m
;Layer height: 0.15
;Generated with Cura_SteamEngine 2.7.0
M190 S60
M104 S200
M109 S200
G2G21            ;metric values
G90            ;absolute positioning
M82            ;set extruder to absolute mode
M107           ;start with the fan off
G28 X0 Y0      ;move X/Y to min endstops
G28 Z0         ;move Z to min endstops
G1 Z15.0 F9000 ;move the platform down 15mm
G1 X6 Y3
G92 X0 Y0 Z15.0
G92 E0         ;zero the extruded length
G1 F200 E3     ;extrude 3mm of feed stock
G92 E0         ;zero the extruded length again
G1 F9000
M117 Printing...
;LAYER_COUNT:29
;LAYER:0
M107
G0 F3600 X53.185 Y82.537 Z0.3
;TYPE:SKIRT
G1 F1800 X53.876 Y82.153 E0.03944
G1 X54.601 Y81.841 E0.07882
G1 X55.354 Y81.604 E0.1182
G1 X56.128 Y81.445 E0.15762
G1 X56.913 Y81.364 E0.19699
G1 X57.315 Y81.354 E0.21706
G1 X162.685 Y81.354 E5.47399
G1 X163.474 Y81.394 E5.5134
G1 X164.254 Y81.513 E5.55277
G1 X165.019 Y81.711 E5.59219
G1 X165.759 Y81.985 E5.63156
G1 X166.468 Y82.333 E5.67096
G1 X167.139 Y82.751 E5.7104
G1 X167.763 Y83.234 E5.74977
G1 X168.336 Y83.777 E5.78915
G1 X168.851 Y84.376 E5.82856
G1 X169.302 Y85.024 E5.86795
G1 X169.686 Y85.715 E5.90739
G1 X169.998 Y86.44 E5.94677
G1 X170.235 Y87.193 E5.98615
G1 X170.394 Y87.967 E6.02558
G1 X170.475 Y88.752 E6.06495
G1 X170.485 Y89.154 E6.08501
G1 X170.485 Y130.846 E8.16503
G1 X170.445 Y131.635 E8.20445
G1 X170.326 Y132.415 E8.24381
G1 X170.128 Y133.18 E8.28323
G1 X169.854 Y133.92 E8.3226
G1 X169.506 Y134.629 E8.36201
G1 X169.088 Y135.3 E8.40145
G1 X168.605 Y135.924 E8.44081
G1 X168.062 Y136.497 E8.4802
G1 X167.463 Y137.012 E8.51961
G1 X166.815 Y137.463 E8.559
G1 X166.124 Y137.847 E8.59844
G1 X165.399 Y138.159 E8.63781
G1 X164.646 Y138.396 E8.6772
G1 X163.872 Y138.555 E8.71662
G1 X163.087 Y138.636 E8.75599
G1 X162.685 Y138.646 E8.77605
G1 X57.315 Y138.646 E14.03298
G1 X56.526 Y138.606 E14.0724
G1 X55.746 Y138.487 E14.11176
G1 X54.981 Y138.289 E14.15119
G1 X54.241 Y138.015 E14.19055
G1 X53.532 Y137.667 E14.22996
G1 X52.861 Y137.249 E14.2694
G1 X52.237 Y136.766 E14.30877
G1 X51.664 Y136.223 E14.34815
G1 X51.149 Y135.624 E14.38756
G1 X50.698 Y134.976 E14.42695
G1 X50.314 Y134.285 E14.46639
G1 X50.002 Y133.56 E14.50577
G1 X49.765 Y132.807 E14.54515
G1 X49.606 Y132.033 E14.58457
G1 X49.525 Y131.248 E14.62394
G1 X49.515 Y130.846 E14.64401
G1 X49.515 Y89.154 E16.72403
G1 X49.555 Y88.365 E16.76344
G1 X49.674 Y87.585 E16.80281
G1 X49.872 Y86.82 E16.84223
G1 X50.146 Y86.08 E16.8816
G1 X50.494 Y85.371 E16.921
G1 X50.912 Y84.7 E16.96044
G1 X51.395 Y84.076 E16.99981
G1 X51.938 Y83.503 E17.03919
G1 X52.537 Y82.988 E17.07861
G1 X53.185 Y82.537 E17.11799
G0 F3600 X53.568 Y82.773
G1 F1800 X54.251 Y82.418 E17.1564
G1 X54.966 Y82.137 E17.19472
G1 X55.708 Y81.931 E17.23314
G1 X56.466 Y81.803 E17.2715
G1 X57.315 Y81.754 E17.31392
G1 X162.685 Y81.754 E22.57085
G1 X163.453 Y81.794 E22.60922
G1 X164.213 Y81.913 E22.6476
G1 X164.956 Y82.111 E22.68596
G1 X165.675 Y82.385 E22.72435
G1 X166.361 Y82.732 E22.7627
G1 X167.008 Y83.148 E22.80108
G1 X167.608 Y83.629 E22.83944
G1 X168.155 Y84.17 E22.87783
G1 X168.643 Y84.765 E22.91622
G1 X169.066 Y85.407 E22.95458
G1 X169.421 Y86.09 E22.99298
G1 X169.702 Y86.805 E23.03131
G1 X169.908 Y87.547 E23.06972
G1 X170.036 Y88.305 E23.10808
G1 X170.085 Y89.154 E23.1505
G1 X170.085 Y130.846 E25.23053
G1 X170.045 Y131.614 E25.26889
G1 X169.926 Y132.374 E25.30727
G1 X169.728 Y133.117 E25.34563
G1 X169.454 Y133.836 E25.38402
G1 X169.107 Y134.522 E25.42238
G1 X168.691 Y135.169 E25.46075
G1 X168.21 Y135.769 E25.49912
G1 X167.669 Y136.316 E25.5375
G1 X167.074 Y136.804 E25.57589
G1 X166.432 Y137.227 E25.61425
G1 X165.749 Y137.582 E25.65265
G1 X165.034 Y137.863 E25.69098
G1 X164.292 Y138.069 E25.7294
G1 X163.534 Y138.197 E25.76775
G1 X162.685 Y138.246 E25.81018
G1 X57.315 Y138.246 E31.06711
G1 X56.547 Y138.206 E31.10547
G1 X55.787 Y138.087 E31.14385
G1 X55.044 Y137.889 E31.18222
G1 X54.325 Y137.615 E31.2206
G1 X53.639 Y137.268 E31.25896
G1 X52.992 Y136.852 E31.29733
G1 X52.392 Y136.371 E31.3357
G1 X51.845 Y135.83 E31.37408
G1 X51.357 Y135.235 E31.41247
G1 X50.934 Y134.593 E31.45083
G1 X50.579 Y133.91 E31.48923
G1 X50.298 Y133.195 E31.52756
G1 X50.092 Y132.453 E31.56598
G1 X49.964 Y131.695 E31.60433
G1 X49.915 Y130.846 E31.64676
G1 X49.915 Y89.154 E33.72678
G1 X49.955 Y88.386 E33.76515
G1 X50.074 Y87.626 E33.80353
G1 X50.272 Y86.883 E33.84189
G1 X50.546 Y86.164 E33.88028
G1 X50.893 Y85.478 E33.91863
G1 X51.309 Y84.831 E33.95701
G1 X51.79 Y84.231 E33.99537
G1 X52.331 Y83.684 E34.03375
G1 X52.926 Y83.196 E34.07215
G1 X53.568 Y82.773 E34.1105
G0 F3600 X53.949 Y83.016
G1 F1800 X54.623 Y82.692 E34.14781
G1 X55.328 Y82.442 E34.18513
G1 X56.056 Y82.268 E34.22247
G1 X56.798 Y82.173 E34.25979
G1 X57.315 Y82.154 E34.2856
G1 X162.685 Y82.154 E39.54254
G1 X163.432 Y82.194 E39.57986
G1 X164.17 Y82.313 E39.61715
G1 X164.892 Y82.511 E39.6545
G1 X165.588 Y82.784 E39.6918
G1 X166.251 Y83.131 E39.72913
G1 X166.874 Y83.546 E39.76648
G1 X167.448 Y84.025 E39.80378
G1 X167.969 Y84.562 E39.84111
G1 X168.428 Y85.152 E39.8784
G1 X168.823 Y85.788 E39.91575
G1 X169.147 Y86.462 E39.95306
G1 X169.397 Y87.167 E39.99038
G1 X169.571 Y87.895 E40.02772
G1 X169.666 Y88.637 E40.06504
G1 X169.685 Y89.154 E40.09086
G1 X169.685 Y130.846 E42.17088
G1 X169.645 Y131.593 E42.2082
G1 X169.526 Y132.331 E42.24549
G1 X169.328 Y133.053 E42.28284
G1 X169.055 Y133.749 E42.32014
G1 X168.708 Y134.412 E42.35748
G1 X168.293 Y135.035 E42.39482
G1 X167.814 Y135.609 E42.43212
G1 X167.277 Y136.13 E42.46945
G1 X166.687 Y136.589 E42.50674
G1 X166.051 Y136.984 E42.5441
G1 X165.377 Y137.308 E42.5814
G1 X164.672 Y137.558 E42.61872
G1 X163.944 Y137.732 E42.65607
G1 X163.202 Y137.827 E42.69339
G1 X162.685 Y137.846 E42.7192
G1 X57.315 Y137.846 E47.97613
G1 X56.568 Y137.806 E48.01345
G1 X55.83 Y137.687 E48.05074
G1 X55.108 Y137.489 E48.0881
G1 X54.412 Y137.216 E48.12539
G1 X53.749 Y136.869 E48.16273
G1 X53.126 Y136.454 E48.20007
G1 X52.552 Y135.975 E48.23737
G1 X52.031 Y135.438 E48.2747
G1 X51.572 Y134.848 E48.31199
G1 X51.177 Y134.212 E48.34935
G1 X50.853 Y133.538 E48.38666
G1 X50.603 Y132.833 E48.42397
G1 X50.429 Y132.105 E48.46132
G1 X50.334 Y131.363 E48.49864
G1 X50.315 Y130.846 E48.52445
G1 X50.315 Y89.154 E50.60447
G1 X50.355 Y88.407 E50.64179
G1 X50.474 Y87.669 E50.67909
G1 X50.672 Y86.947 E50.71644
G1 X50.945 Y86.251 E50.75374
G1 X51.292 Y85.588 E50.79107
G1 X51.707 Y84.965 E50.82842
G1 X52.186 Y84.391 E50.86571
G1 X52.723 Y83.87 E50.90304
G1 X53.313 Y83.411 E50.94034
G1 X53.949 Y83.016 E50.97769
G0 F3600 X54.328 Y83.269
G1 F1800 X54.993 Y82.976 E51.01394
G1 X55.686 Y82.758 E51.05019
G1 X56.398 Y82.618 E51.08639
G1 X57.315 Y82.554 E51.13225
G1 X162.685 Y82.554 E56.38918
G1 X163.41 Y82.594 E56.42541
G1 X164.127 Y82.713 E56.46167
G1 X164.826 Y82.911 E56.49791
G1 X165.499 Y83.184 E56.53415
G1 X166.138 Y83.529 E56.57037
G1 X166.735 Y83.943 E56.60662
G1 X167.283 Y84.419 E56.64283
G1 X167.776 Y84.953 E56.67909
G1 X168.206 Y85.538 E56.71531
G1 X168.57 Y86.167 E56.75157
G1 X168.863 Y86.832 E56.78783
G1 X169.081 Y87.525 E56.82407
G1 X169.221 Y88.237 E56.86027
G1 X169.285 Y89.154 E56.90613
G1 X169.285 Y130.846 E58.98616
G1 X169.245 Y131.571 E59.02238
G1 X169.126 Y132.288 E59.05864
G1 X168.928 Y132.987 E59.09489
G1 X168.655 Y133.66 E59.13112
G1 X168.31 Y134.299 E59.16735
G1 X167.896 Y134.896 E59.20359
G1 X167.42 Y135.444 E59.23981
G1 X166.886 Y135.937 E59.27607
G1 X166.301 Y136.367 E59.31229
G1 X165.672 Y136.731 E59.34855
G1 X165.007 Y137.024 E59.3848
G1 X164.314 Y137.242 E59.42104
G1 X163.602 Y137.382 E59.45725
G1 X162.685 Y137.446 E59.50311
G1 X57.315 Y137.446 E64.76004
G1 X56.59 Y137.406 E64.79626
G1 X55.873 Y137.287 E64.83252
G1 X55.174 Y137.089 E64.86877
G1 X54.501 Y136.816 E64.905
G1 X53.862 Y136.471 E64.94123
G1 X53.265 Y136.057 E64.97748
G1 X52.717 Y135.581 E65.01369
G1 X52.224 Y135.047 E65.04995
G1 X51.794 Y134.462 E65.08617
G1 X51.43 Y133.833 E65.12243
G1 X51.137 Y133.168 E65.15868
G1 X50.919 Y132.475 E65.19493
G1 X50.779 Y131.763 E65.23113
G1 X50.715 Y130.846 E65.27699
G1 X50.715 Y89.154 E67.35701
G1 X50.755 Y88.429 E67.39324
G1 X50.874 Y87.712 E67.4295
G1 X51.072 Y87.013 E67.46574
G1 X51.345 Y86.34 E67.50198
G1 X51.69 Y85.701 E67.53821
G1 X52.104 Y85.104 E67.57445
G1 X52.58 Y84.556 E67.61067
G1 X53.114 Y84.063 E67.64693
G1 X53.699 Y83.633 E67.68315
G1 X54.328 Y83.269 E67.7194
G0 F3600 X54.704 Y83.531
G1 F1800 X55.358 Y83.271 E67.75452
G1 X56.038 Y83.087 E67.78966
G1 X56.734 Y82.981 E67.82479
G1 X57.315 Y82.954 E67.8538
G1 X162.685 Y82.954 E73.11073
G1 X163.388 Y82.994 E73.14586
G1 X164.082 Y83.113 E73.18099
G1 X164.757 Y83.311 E73.21609
G1 X165.406 Y83.583 E73.25119
G1 X166.02 Y83.928 E73.28633
G1 X166.591 Y84.339 E73.32143
G1 X167.112 Y84.813 E73.35657
G1 X167.576 Y85.343 E73.39171
G1 X167.976 Y85.922 E73.42682
G1 X168.308 Y86.543 E73.46196
G1 X168.568 Y87.197 E73.49707
G1 X168.752 Y87.877 E73.53221
G1 X168.858 Y88.573 E73.56734
G1 X168.885 Y89.154 E73.59635
G1 X168.885 Y130.846 E75.67638
G1 X168.845 Y131.549 E75.71151
G1 X168.726 Y132.243 E75.74664
G1 X168.528 Y132.918 E75.78173
G1 X168.256 Y133.567 E75.81684
G1 X167.911 Y134.181 E75.85197
G1 X167.5 Y134.752 E75.88707
G1 X167.026 Y135.273 E75.92221
G1 X166.496 Y135.737 E75.95736
G1 X165.917 Y136.137 E75.99247
G1 X165.296 Y136.469 E76.0276
G1 X164.642 Y136.729 E76.06271
G1 X163.962 Y136.913 E76.09786
G1 X163.266 Y137.019 E76.13298
G1 X162.685 Y137.046 E76.162
G1 X57.315 Y137.046 E81.41893
G1 X56.612 Y137.006 E81.45406
G1 X55.918 Y136.887 E81.48919
G1 X55.243 Y136.689 E81.52428
G1 X54.594 Y136.417 E81.55939
G1 X53.98 Y136.072 E81.59453
G1 X53.409 Y135.661 E81.62963
G1 X52.888 Y135.187 E81.66477
G1 X52.424 Y134.657 E81.69991
G1 X52.024 Y134.078 E81.73502
G1 X51.692 Y133.457 E81.77015
G1 X51.432 Y132.803 E81.80526
G1 X51.248 Y132.123 E81.84041
G1 X51.142 Y131.427 E81.87553
G1 X51.115 Y130.846 E81.90455
G1 X51.115 Y89.154 E83.98457
G1 X51.155 Y88.451 E84.0197
G1 X51.274 Y87.757 E84.05483
G1 X51.472 Y87.082 E84.08993
G1 X51.744 Y86.433 E84.12503
G1 X52.089 Y85.819 E84.16017
G1 X52.5 Y85.248 E84.19527
G1 X52.974 Y84.727 E84.23041
G1 X53.504 Y84.263 E84.26555
G1 X54.083 Y83.863 E84.30066
G1 X54.704 Y83.531 E84.33579
G0 F3600 X55.077 Y83.803
G1 F1800 X55.719 Y83.578 E84.36973
G1 X56.384 Y83.429 E84.40373
G1 X57.315 Y83.354 E84.45033
G1 X162.685 Y83.354 E89.70726
G1 X163.365 Y83.394 E89.74125
G1 X164.035 Y83.513 E89.7752
G1 X164.687 Y83.71 E89.80918
G1 X165.311 Y83.982 E89.84314
G1 X165.899 Y84.326 E89.87712
G1 X166.443 Y84.736 E89.91111
G1 X166.934 Y85.207 E89.94505
G1 X167.368 Y85.732 E89.97904
G1 X167.737 Y86.304 E90.013
G1 X168.036 Y86.916 E90.04698
G1 X168.261 Y87.558 E90.08092
G1 X168.41 Y88.223 E90.11492
G1 X168.485 Y89.154 E90.16152
G1 X168.485 Y130.846 E92.24154
G1 X168.445 Y131.526 E92.27552
G1 X168.326 Y132.196 E92.30947
G1 X168.129 Y132.848 E92.34345
G1 X167.857 Y133.472 E92.37741
G1 X167.513 Y134.06 E92.4114
G1 X167.103 Y134.604 E92.44539
G1 X166.632 Y135.095 E92.47933
G1 X166.107 Y135.529 E92.51331
G1 X165.535 Y135.898 E92.54727
G1 X164.923 Y136.197 E92.58126
G1 X164.281 Y136.422 E92.61519
G1 X163.616 Y136.571 E92.64919
G1 X162.685 Y136.646 E92.69579
G1 X57.315 Y136.646 E97.95272
G1 X56.635 Y136.606 E97.98671
G1 X55.965 Y136.487 E98.02066
G1 X55.313 Y136.29 E98.05464
G1 X54.689 Y136.018 E98.0886
G1 X54.101 Y135.674 E98.12259
G1 X53.557 Y135.264 E98.15657
G1 X53.066 Y134.793 E98.19051
G1 X52.632 Y134.268 E98.2245
G1 X52.263 Y133.696 E98.25846
G1 X51.964 Y133.084 E98.29244
G1 X51.739 Y132.442 E98.32638
G1 X51.59 Y131.777 E98.36038
G1 X51.515 Y130.846 E98.40698
G1 X51.515 Y89.154 E100.487
G1 X51.555 Y88.474 E100.52098
G1 X51.674 Y87.804 E100.55493
G1 X51.871 Y87.152 E100.58891
G1 X52.143 Y86.528 E100.62287
G1 X52.487 Y85.94 E100.65686
G1 X52.897 Y85.396 E100.69085
G1 X53.368 Y84.905 E100.72479
G1 X53.893 Y84.471 E100.75877
G1 X54.465 Y84.102 E100.79273
G1 X55.077 Y83.803 E100.82672
G0 F3600 X55.446 Y84.088
G1 F1800 X56.075 Y83.898 E100.8595
G1 X56.722 Y83.787 E100.89225
G1 X57.315 Y83.754 E100.92188
G1 X162.685 Y83.754 E106.17881
G1 X163.341 Y83.794 E106.2116
G1 X163.987 Y83.913 E106.24437
G1 X164.614 Y84.11 E106.27716
G1 X165.212 Y84.382 E106.30993
G1 X165.773 Y84.724 E106.34271
G1 X166.288 Y85.132 E106.37549
G1 X166.75 Y85.599 E106.40827
G1 X167.151 Y86.119 E106.44103
G1 X167.487 Y86.683 E106.47378
G1 X167.751 Y87.285 E106.50658
G1 X167.941 Y87.914 E106.53936
G1 X168.052 Y88.561 E106.57211
G1 X168.085 Y89.154 E106.60174
G1 X168.085 Y130.846 E108.68176
G1 X168.045 Y131.502 E108.71455
G1 X167.926 Y132.148 E108.74732
G1 X167.729 Y132.775 E108.78011
G1 X167.457 Y133.373 E108.81288
G1 X167.115 Y133.934 E108.84566
G1 X166.707 Y134.449 E108.87844
G1 X166.24 Y134.911 E108.91122
G1 X165.72 Y135.312 E108.94398
G1 X165.156 Y135.648 E108.97673
G1 X164.554 Y135.912 E109.00953
G1 X163.925 Y136.102 E109.04231
G1 X163.278 Y136.213 E109.07506
G1 X162.685 Y136.246 E109.10469
G1 X57.315 Y136.246 E114.36162
G1 X56.659 Y136.206 E114.39441
G1 X56.013 Y136.087 E114.42718
G1 X55.386 Y135.89 E114.45997
G1 X54.788 Y135.618 E114.49274
G1 X54.227 Y135.276 E114.52552
G1 X53.712 Y134.868 E114.5583
G1 X53.25 Y134.401 E114.59108
G1 X52.849 Y133.881 E114.62384
G1 X52.513 Y133.317 E114.65659
G1 X52.249 Y132.715 E114.68938
G1 X52.059 Y132.086 E114.72217
G1 X51.948 Y131.439 E114.75492
G1 X51.915 Y130.846 E114.78455
G1 X51.915 Y89.154 E116.86457
G1 X51.955 Y88.498 E116.89736
G1 X52.074 Y87.852 E116.93013
G1 X52.271 Y87.225 E116.96292
G1 X52.543 Y86.627 E116.99569
G1 X52.885 Y86.066 E117.02847
G1 X53.293 Y85.551 E117.06125
G1 X53.76 Y85.089 E117.09403
G1 X54.28 Y84.688 E117.12679
G1 X54.844 Y84.352 E117.15954
G1 X55.446 Y84.088 E117.19233
G0 F3600 X55.81 Y84.386
G1 F1800 X56.424 Y84.234 E117.22389
G1 X57.315 Y84.154 E117.26852
G1 X162.685 Y84.154 E122.52545
G1 X163.316 Y84.194 E122.557
G1 X163.937 Y84.313 E122.58854
G1 X164.537 Y84.51 E122.62005
G1 X165.109 Y84.781 E122.65163
G1 X165.641 Y85.121 E122.68313
G1 X166.126 Y85.527 E122.71468
G1 X166.556 Y85.99 E122.74621
G1 X166.925 Y86.504 E122.77777
G1 X167.225 Y87.06 E122.80929
G1 X167.453 Y87.649 E122.8408
G1 X167.605 Y88.263 E122.87236
G1 X167.685 Y89.154 E122.91699
G1 X167.685 Y130.846 E124.99701
G1 X167.645 Y131.477 E125.02856
G1 X167.526 Y132.098 E125.0601
G1 X167.329 Y132.698 E125.09161
G1 X167.058 Y133.27 E125.12319
G1 X166.718 Y133.802 E125.15469
G1 X166.312 Y134.287 E125.18624
G1 X165.849 Y134.717 E125.21777
G1 X165.335 Y135.086 E125.24933
G1 X164.779 Y135.386 E125.28085
G1 X164.19 Y135.614 E125.31236
G1 X163.576 Y135.766 E125.34392
G1 X162.685 Y135.846 E125.38855
G1 X57.315 Y135.846 E130.64548
G1 X56.684 Y135.806 E130.67703
G1 X56.063 Y135.687 E130.70857
G1 X55.463 Y135.49 E130.74008
G1 X54.891 Y135.219 E130.77166
G1 X54.359 Y134.879 E130.80315
G1 X53.874 Y134.473 E130.83471
G1 X53.444 Y134.01 E130.86623
G1 X53.075 Y133.496 E130.8978
G1 X52.775 Y132.94 E130.92932
G1 X52.547 Y132.351 E130.96083
G1 X52.395 Y131.737 E130.99239
G1 X52.315 Y130.846 E131.03702
G1 X52.315 Y89.154 E133.11704
G1 X52.355 Y88.523 E133.14859
G1 X52.474 Y87.902 E133.18013
G1 X52.671 Y87.302 E133.21164
G1 X52.942 Y86.73 E133.24322
G1 X53.282 Y86.198 E133.27472
G1 X53.688 Y85.713 E133.30627
G1 X54.151 Y85.283 E133.3378
G1 X54.665 Y84.914 E133.36936
G1 X55.221 Y84.614 E133.40088
G1 X55.81 Y84.386 E133.43239
G0 F3600 X56.169 Y84.699
G1 F1800 X56.765 Y84.587 E133.46265
G1 X57.315 Y84.554 E133.49014
G1 X162.685 Y84.554 E138.74707
G1 X163.29 Y84.594 E138.77732
G1 X163.884 Y84.713 E138.80754
G1 X164.458 Y84.909 E138.8378
